X:155
T:Sol Minuer
C:pour Django et Stephane
N:Copyright 2001 Matthew R Fox TablEdited by Matthew Fox
L:1/8
Q:1/4=90
M:4/4
K:Bb
z8 | DB [gd]B EB [gd]B | =EB [gd]B F[g3d3B3] | DB [gd]B EB [gd]B | =EB [gd]B [g2d2B2F2] [g2d2B2_G2] | 
[g2d2B2G2] [a2e2c2_G2] [bfd=G][c'_geA] z[d'=gfB] | zf [g'2d'2b2] [_g'2c'2a2e2] [e'2a2_g2c2] | 
[d'2a2=e2B2] [b2f2d2G2] [a_ec_G]b2[gdB=G] | zG BG AD _G=G | [g2d2B2G2] [a2e2c2_G2] [bfd=G][c'_geA] z[d'=gfB] | 
z2 [g'2d'2b2f2] (3[_g'c'ae]=g'_g' [e'2a2_g2c2] | [d'a=eB]e' d'2 [_d'geB][c'_g_eA] [d'2=g2=e2B2] | 
[d'a_gd]a gc' zd' c'a | G[bfd] ab [aec_G]b a2 | [gdBG]d _d=d2g G2 | [gd=BG]f ed (3fed (3Bcd | 
ec GC2G [g2e2c2] | E[bg_d] [c'gdB][bgd] [_d'b=e_G][e'be] [d'2b2e2d2] | [d'2a2=e2B2] [b2f2d2G2] [a_ec_G]b c'_d' | 
[d'a_gd]e' d'c' [gcA]a ba | [gdBG]G BG AD _G=G | G[gdB] _G[aec] =G[bfd] A[c'_ge] | 
[d'gfB]f [g'2d'2b2] [_g'2c'2a2e2] [e'2a2_g2c2] | [d'2a2=e2B2] [b2f2d2G2] [a_ec_G]b2[gdB=G] | 
zG BG AD _G=G | G[gdB] _G[aec] =G[bfd] A[c'_ge] | [d'gfB]f [g'2d'2b2] (3[_g'c'ae]=g'_g' [e'2a2_g2c2] | 
[d'a=eB]e' d'2 (3[_d'2g2e2B2][c'2_g2_e2A2] [d'2=g2=e2B2] | [d'a_gd]a d'e' d'(3e'/d'/c'/ ab | 
G[bfd] ab [aec_G]b a2 | (3[g2d2B2G2]d2 (3_d2=d2g2 G2 | [gd=BG]f ed (3fed (3Bcd | 
ec GC2G [g2e2c2] | E[bg_d] [c'gdB][bgd] [_d'b=e_G][e'be] [d'2b2e2d2] | [d'2a2=e2B2] [b2f2d2G2] [a_ec_G]b c'_d' | 
[d'a_gd]e' d'c' [gcA]a ba | [gdBG]G BG AD _G=G | [gd=BG]a gd =eg3 | [a=ecA]=b a2 [c'_gdA]b a2 | 
[c'2a2=e2c2] [=b2f2d2_A2] [c'2_g2d2=A2] [aec_G][bgd=G] | z_g dG =B[=g3d3] | [d'_af=B][d'af] [d'afB][d'af] [c'2=a2=e2c2] [=b2f2d2_A2] | 
[c'gec]e [c'g]=B e[c'g] _B[c'ge] | [c'geA][c'geA] [c'geA][c'geA] [d'2g2e2A2] [c'2g2e2A2] | 
[=b_gdG]g dG =B[=g3d3] | [=bfd_A][bfdA] [bfdA][bfdA] [c'2f2d2A2] [c'2f2d2A2] | 
[a2=e2c2A2] [=b2f2d2_A2] [c'ge=A][d'2_a2f2=B2][e'=a_gc] | z2 [c'2_g2e2A2] [a2e2c2_G2] [g2c2A2E2] | 
[gdBG]G BG AD _G=G | [g2d2B2G2] [a2e2c2_G2] [bfd=G][c'_geA] z[d'=gfB] | zf [g'2d'2b2] [_g'2c'2a2e2] [e'2a2_g2c2] | 
[d'2a2=e2B2] [b2f2d2G2] [a_ec_G]b2[gdB=G] | zG BG AD _G=G | G[gdB] _G[aec] =G[bfd] A[c'_ge] | 
[d'gfB]f [g'2d'2b2] (3[_g'c'ae]=g'_g' [e'2a2_g2c2] | [d'a=eB]e' d'2 (3[_d'2g2e2B2][c'2_g2_e2A2] [d'2=g2=e2B2] | 
[d'a_gd]a d'e' d'(3e'/d'/c'/ ab | G[bfd] ab [aec_G]b a2 | [gdBG]d _d=d zg G2 | 
[gd=BG]f ed (3fed (3Bcd | ec GC2G [g2e2c2] | E[bg_d] [c'gdB][bgd] [_d'b=e_G][e'be] [d'2b2e2d2] | 
[d'2a2=e2B2] [b2f2d2G2] [a_ec_G]b c'_d' | [d'a_gd]e' d'c' [gcA]a ba | [gdBG]G BG AD _G=G | 
E[bg_d] [c'gdB][bgd] [_d'b=e_G][e'be] [d'2b2e2d2] | [g'2d'2b2f2] [d'2a2=e2B2] [a_ec_G]b c'_d' | 
[d'a_gd]"Freely ornament "e' d'e' d'c' a2 | [a_gcA]b ab a_a =a2 | G,=E Bd =e2 z2 | 
z8 | 


